icon/pk/socks.svg

<svg viewBox="0 0 48 48" fill="none" xmlns="http://www.w3.org/2000/svg" height="1em" width="1em">
  <path d="M40.0001 18C37.0001 18 32.0005 18 30.0003 23C28 28 30.5002 32.5 33.0002 35" stroke="black" stroke-width="4" stroke-linecap="round" stroke-linejoin="round"/>
  <path d="M18 10L40 10" stroke="black" stroke-width="4" stroke-linecap="round" stroke-linejoin="round"/>
  <path d="M20.0005 4H38.0006C39.1052 4 40.0006 4.89543 40.0006 6V24.2876C40.0006 27.7198 38.4001 30.9554 35.6645 33.0283C32.0224 35.7881 27.0882 39.5088 25.0005 41C21.5005 43.5 15.0005 46 10.0008 41C5.00104 36 6.25114 29.443 10.001 26C13.7508 22.557 18.0005 19.1519 18.0005 19.1519V6C18.0005 4.89543 18.8959 4 20.0005 4Z" stroke="black" stroke-width="4" stroke-linecap="round" stroke-linejoin="round"/>
</svg>

<svg width="48" height="48" fill="none" xmlns="http://www.w3.org/2000/svg"><path d="M40 18c-3 0-8 0-10 5s.5 9.5 3 12M18 10h22" stroke="#000" stroke-width="4" stroke-linecap="round" stroke-linejoin="round"/><path d="M20 4h18a2 2 0 0 1 2 2v18.288c0 3.432-1.6 6.667-4.336 8.74C32.022 35.788 27.088 39.508 25 41c-3.5 2.5-10 5-15 0-4.999-5-3.749-11.557.001-15 3.75-3.443 8-6.848 8-6.848V6a2 2 0 0 1 2-2Z" stroke="#000" stroke-width="4" stroke-linecap="round" stroke-linejoin="round"/></svg>
